X: 10135
T: Din Tarrant's
R: polka
M: 2/4
K: Gmajor
BG GB|cA Bc|BG~G2|Bc Ac|
BG GB|cA Bd|e/f/g dc|BG GA:|
Bd df|gf ed|Bd df|gd Ac|
Bd df|gf ed|e/f/g dc|BG GA|
Bd df|gf ed|(3efg fa g>a|bg af|
gf ed|e/f/g dc|BG GA||

